img/logo_v3.svg

<svg viewBox="25 13 286 287" xmlns="http://www.w3.org/2000/svg"><ellipse cx="167.503" cy="156.57" rx="140.797" ry="141.258" fill="#fff"/><ellipse cx="167.502" cy="156.649" rx="138.489" ry="138.72" fill="#1b75b5"/><path d="M61.744 84.535h23.299l54.892 141.941h-23.527L61.744 84.535zm139.418-.186h23.299l54.892 141.941h-23.527L201.162 84.349zm-2.542 16.467l-68.989 75.483 6.493 17.247 102.063 11.972-7.913-20.291-76.091-8.32 52.147-56.612-7.71-19.479z" fill="#fff"/></svg>

<?xml version="1.0" encoding="utf-8"?>
<svg viewBox="25 13 286 287" xmlns="http://www.w3.org/2000/svg" id="logo">
    <g id="bgCircle" fill="#fff">
        <ellipse cx="167.503" cy="156.57" rx="140.797" ry="141.258"/>
    </g>
    <g id="mainCircle" fill="#1b75b5">
        <ellipse cx="167.502" cy="156.649" rx="138.489" ry="138.72" />
    </g>
    <g id="letters" fill="#fff">
        <path d="M 61.744 84.535 L 85.043 84.535 L 139.935 226.476 L 116.408 226.476 L 61.744 84.535 Z"/>
        <path d="M 201.162 84.349 L 224.461 84.349 L 279.353 226.29 L 255.826 226.29 L 201.162 84.349 Z"/>
        <path d="M 198.62 100.816 L 129.631 176.299 L 136.124 193.546 L 238.187 205.518 L 230.274 185.227 L 154.183 176.907 L 206.33 120.295 L 198.62 100.816 Z"/>
    </g>
</svg>
